img/icons/socials/vk.svg

<svg width="30" height="30" viewBox="0 0 30 30" fill="none" xmlns="http://www.w3.org/2000/svg">
<path d="M15 0C6.71779 0 0 6.71779 0 15C0 23.2822 6.71779 30 15 30C23.2822 30 30 23.2822 30 15C30 6.71779 23.2822 0 15 0ZM22.6074 16.6258C23.3129 17.3006 24.0491 17.9448 24.6626 18.7117C24.9387 19.0491 25.2147 19.3865 25.3988 19.7853C25.6748 20.3374 25.4294 20.9509 24.9387 20.9816H21.8712C21.0736 21.0429 20.4601 20.7362 19.908 20.184C19.4785 19.7546 19.0798 19.2945 18.681 18.8344C18.5276 18.6503 18.3436 18.4663 18.1288 18.3436C17.6994 18.0675 17.3313 18.1595 17.1166 18.589C16.8712 19.0491 16.8098 19.5399 16.7791 20.0307C16.7485 20.7669 16.5337 20.9509 15.7975 20.9816C14.2331 21.0429 12.7607 20.8282 11.411 20.0307C10.2147 19.3252 9.2638 18.3742 8.46626 17.2699C6.87117 15.1227 5.67485 12.7607 4.57055 10.3374C4.32515 9.78528 4.5092 9.5092 5.1227 9.47853C6.13497 9.44785 7.11656 9.44785 8.12883 9.47853C8.52761 9.47853 8.80368 9.72393 8.95706 10.092C9.5092 11.411 10.1534 12.6994 10.9816 13.865C11.1963 14.1718 11.4417 14.4785 11.7485 14.7239C12.1166 14.9693 12.362 14.8773 12.546 14.4785C12.638 14.2331 12.6994 13.9571 12.7301 13.681C12.8221 12.7607 12.8221 11.8405 12.6687 10.9202C12.5767 10.3067 12.2699 9.93865 11.6871 9.81595C11.3804 9.7546 11.4417 9.66258 11.5644 9.47853C11.8098 9.20245 12.0552 9.0184 12.5153 9.0184H15.9816C16.5337 9.1411 16.6564 9.35583 16.7178 9.90797V13.773C16.7178 13.9877 16.8098 14.6319 17.2086 14.7546C17.5153 14.8466 17.7301 14.6012 17.9141 14.4172C18.7423 13.5276 19.3252 12.4847 19.8773 11.411C20.1227 10.9202 20.3067 10.4294 20.5215 9.93865C20.6748 9.57055 20.8896 9.3865 21.319 9.3865H24.6626C24.7546 9.3865 24.8466 9.3865 24.9693 9.41718C25.5215 9.5092 25.6748 9.7546 25.5215 10.3067C25.2454 11.1656 24.7239 11.9018 24.2025 12.6074C23.6503 13.3742 23.0368 14.1104 22.4847 14.908C21.9325 15.6442 21.9632 16.0123 22.6074 16.6258Z" fill="#B3B3B3"/>
</svg>

<svg xmlns="http://www.w3.org/2000/svg" fill="none" viewBox="0 0 30 30"><path fill="#B3B3B3" d="M15 0C6.718 0 0 6.718 0 15s6.718 15 15 15 15-6.718 15-15S23.282 0 15 0zm7.607 16.626c.706.675 1.442 1.319 2.056 2.086.276.337.552.675.736 1.073.276.552.03 1.166-.46 1.197H21.87c-.797.06-1.41-.246-1.963-.798-.43-.43-.828-.89-1.227-1.35a2.115 2.115 0 00-.552-.49c-.43-.277-.798-.184-1.012.245-.246.46-.307.95-.338 1.442-.03.736-.245.92-.982.95-1.564.062-3.036-.153-4.386-.95-1.196-.706-2.147-1.657-2.945-2.761-1.595-2.147-2.791-4.51-3.895-6.933-.246-.552-.062-.828.552-.858 1.012-.031 1.994-.031 3.006 0 .399 0 .675.245.828.613.552 1.319 1.196 2.607 2.025 3.773.214.307.46.614.767.859.368.245.613.153.797-.245.092-.246.153-.522.184-.798.092-.92.092-1.84-.061-2.76-.092-.614-.4-.982-.982-1.105-.307-.061-.245-.153-.123-.337.246-.277.491-.46.951-.46h3.467c.552.122.674.337.736.889v3.865c0 .215.092.859.49.982.307.092.522-.154.706-.338.828-.89 1.411-1.932 1.963-3.006.246-.49.43-.982.645-1.472.153-.368.368-.553.797-.553h3.344c.092 0 .184 0 .306.031.552.092.706.338.552.89-.276.859-.797 1.595-1.319 2.3-.552.767-1.165 1.503-1.717 2.301-.552.736-.522 1.104.122 1.718z"/></svg>
